X:26
T:Y March Glas - The Grey Horse
M:2/4
L:1/8
Q:250
C:Trad.
R:Processional
K:D
AA A2 | A3 A | B2 G2 | F2 A2 | A2 AA | A3 A | B2 GG | F2 A2 | DE FE | DD D2|
EF GF | EE E2 | FG A2 | B2 A2 | DE F2 | G2 F2 | DE FE | DD D2 ||
